common/resources/fonts/svg/failed.svg

<?xml version="1.0" encoding="UTF-8" standalone="no"?>
<svg width="1024px" height="1024px" viewBox="0 0 1024 1024" version="1.1" xmlns="http://www.w3.org/2000/svg" xmlns:xlink="http://www.w3.org/1999/xlink">
    <!-- Generator: Sketch 3.7.1 (28215) - http://www.bohemiancoding.com/sketch -->
    <title>failed</title>
    <desc>Created with Sketch.</desc>
    <defs></defs>
    <g id="Page-1" stroke="none" stroke-width="1" fill="none" fill-rule="evenodd">
        <g id="failed" fill="#000000">
            <path d="M904.64375,750.68125 C904.64375,756.325 903.03125,759.55 899.80625,763.58125 L767.58125,895.80625 C763.55,899.03125 759.51875,900.64375 754.68125,900.64375 C749.0375,900.64375 745.00625,899.03125 740.975,895.80625 L512,666.83125 L283.025,895.80625 C278.99375,899.03125 274.9625,900.64375 269.31875,900.64375 C263.675,900.64375 260.45,899.03125 256.41875,895.80625 L124.19375,763.58125 C120.96875,759.55 119.35625,755.51875 119.35625,750.68125 C119.35625,745.0375 120.96875,741.00625 124.19375,736.975 L353.16875,508 L124.19375,279.025 C120.96875,274.99375 119.35625,270.9625 119.35625,265.31875 C119.35625,259.675 120.96875,256.45 124.19375,252.41875 L256.41875,120.19375 C260.45,116.96875 264.48125,115.35625 269.31875,115.35625 C274.9625,115.35625 278.99375,116.96875 283.025,120.19375 L512,349.16875 L740.975,120.19375 C745.00625,116.96875 749.0375,115.35625 754.68125,115.35625 C760.325,115.35625 763.55,116.96875 767.58125,120.19375 L899.80625,252.41875 C903.03125,256.45 904.64375,260.48125 904.64375,265.31875 C904.64375,270.9625 903.03125,274.99375 899.80625,279.025 L670.83125,508 L899.80625,736.975 C902.225,741.00625 904.64375,745.0375 904.64375,750.68125 L904.64375,750.68125 Z" id="Shape"></path>
        </g>
    </g>
</svg>

<svg width="1024" height="1024" viewBox="0 0 1024 1024">
    <path d="M904.644 750.681c0 5.644-1.613 8.869-4.838 12.9L767.581 895.806c-4.031 3.225-8.062 4.838-12.9 4.838-5.644 0-9.675-1.613-13.706-4.838L512 666.831 283.025 895.806c-4.031 3.225-8.063 4.838-13.706 4.838-5.644 0-8.869-1.613-12.9-4.838L124.194 763.581c-3.225-4.031-4.838-8.062-4.838-12.9 0-5.644 1.613-9.675 4.838-13.706L353.169 508 124.194 279.025c-3.225-4.031-4.838-8.063-4.838-13.706 0-5.644 1.613-8.869 4.838-12.9l132.225-132.225c4.031-3.225 8.062-4.838 12.9-4.838 5.643 0 9.675 1.613 13.706 4.838L512 349.169l228.975-228.975c4.031-3.225 8.063-4.838 13.706-4.838 5.644 0 8.869 1.613 12.9 4.838l132.225 132.225c3.225 4.031 4.838 8.062 4.838 12.9 0 5.643-1.613 9.675-4.838 13.706L670.831 508l228.975 228.975c2.419 4.031 4.838 8.063 4.838 13.706z" fill-rule="evenodd"/>
</svg>
